build/img/sprite/icon-hide.svg

<svg width="17" height="16" viewBox="0 0 17 16" fill="none" xmlns="http://www.w3.org/2000/svg">
<circle cx="8.12012" cy="8" r="8" fill="#0E4CD3"/>
<g clip-path="url(#clip0_810_12989)">
<path d="M2.12011 7.99982C2.99549 5.37989 5.34768 3.49981 8.12011 3.49981C9.11255 3.49981 10.0485 3.74477 10.884 4.17532L12.3096 2.74982L13.3701 3.81036L3.93069 13.2498L2.87015 12.1892L4.09216 10.9672C3.20232 10.1942 2.5121 9.17281 2.12016 7.99978L2.12011 7.99982ZM8.12011 4.99982C6.46324 4.99982 5.12011 6.34296 5.12011 7.99982C5.12011 8.55609 5.2779 9.07144 5.54387 9.51552L6.67145 8.38795C6.63802 8.26431 6.62012 8.13426 6.62012 7.9998C6.62012 7.17134 7.2917 6.49981 8.12011 6.49981C8.25413 6.49981 8.38273 6.52004 8.50609 6.55328L9.62662 5.43275C9.18319 5.16736 8.67552 4.99982 8.12011 4.99982Z" fill="white"/>
<path d="M8.12012 11.0001C9.77698 11.0001 11.1201 9.65692 11.1201 8.00008C11.1201 7.7331 11.0741 7.479 11.0086 7.23265L12.6852 5.55609C13.3154 6.24624 13.8112 7.07558 14.1201 8.00008C13.2447 10.62 10.8925 12.5001 8.12012 12.5001C7.41076 12.5001 6.72962 12.3754 6.09295 12.1483L7.35267 10.8886C7.59904 10.9541 7.85317 11.0001 8.12012 11.0001Z" fill="white"/>
</g>
<defs>
<clipPath id="clip0_810_12989">
<rect width="12" height="12" fill="white" transform="matrix(-1 0 0 1 14.1201 2)"/>
</clipPath>
</defs>
</svg>

<svg width="17" height="16" fill="none" xmlns="http://www.w3.org/2000/svg"><circle cx="8.12" cy="8" r="8" fill="#0E4CD3"/><g clip-path="url(#clip0_810_12989)" fill="#fff"><path d="M2.12 8c.875-2.62 3.228-4.5 6-4.5.993 0 1.929.245 2.764.675L12.31 2.75l1.06 1.06-9.44 9.44-1.06-1.06 1.222-1.223A6.77 6.77 0 012.12 8zm6-3a3 3 0 00-3 3c0 .556.158 1.071.424 1.516L6.67 8.388A1.5 1.5 0 018.12 6.5c.134 0 .263.02.386.053l1.12-1.12A2.917 2.917 0 008.12 5zm0 6a3 3 0 003-3 2.97 2.97 0 00-.111-.767l1.676-1.677A6.84 6.84 0 0114.12 8c-.875 2.62-3.227 4.5-6 4.5-.71 0-1.39-.125-2.027-.352l1.26-1.26c.246.066.5.112.767.112z"/></g><defs><clipPath id="clip0_810_12989"><path fill="#fff" transform="matrix(-1 0 0 1 14.12 2)" d="M0 0h12v12H0z"/></clipPath></defs></svg>
